X:73
T:Merry Waggoner. VWMLa.073
%%VWML:Anon2-3049-p43-0
F:http://www.vwml.org/record/Anon2/3049/p43
R:Jig
S:Anon. MS, late 18thC, Vaughan Williams Mem. Library
N:Bears a strong resemblance to the Fieldtown Morris tune
N:for Dearest Dicky..CGP
O:England;Yorkshire
Z:vmp/efdss.Simon Wilson. Reviewed PJH 2008.
M:6/8
L:1/8
Q:3/8=120
K:D
D|F>GA B>cA|B>dB A>Bc|d>ef B>cd|e>cA d2:|
|:c/d/|e>fe ecA|ecA AFG|
A>BA AGF|GEF G3|\
F2A FDF|G2B GEG|FGA GFE|D2d D2:|
T:Hob or me Nob. VWMLa.074
T:Campbells Are Coming,aka. VWMLa.074
R:Jig
S:Anon. MS, late 18thC, Vaughan Williams Mem. Library
O:a
Z:vmp/efdss.Simon Wilson. Reviewed PJH 2008.
M:6/8
L:1/8
Q:3/8=120
K:G
D|GBe dBG|B2B B2A|GBg dBG|ABA A2B|\
GBe dBG|B2d g2a|bag (e/f/g).e|dBB B2:|
|:d|g2g gab|d2d d2B|g2g gab|e2e e2f|\
gfe gab|dBG g2a|bag (e/f/g)e|dBB B2:|
